X: 1
T: Birmingham, The
M: 4/4
L: 1/8
R: reel
K: Gmaj
g2gf gdBd|gdBd ea~a2|g2gf gdBd|1 ecAc BGGf:|2 ecAc BGGF||
|:G2dB ~G3D|G2Bd eA~A2|GA (3Bcd g2ge|fdcA AGFA:|
|:G2DG BGdG|~G2dG FDEF|~G3A (3Bcd eg|1 fdcA AGFA:|2 fdcA BG~G2||
